Newaita-dark/mimetypes/32/text-x-ssa.svg

<svg height="32pt" viewBox="0 0 32 32" width="32pt" xmlns="http://www.w3.org/2000/svg" xmlns:xlink="http://www.w3.org/1999/xlink"><linearGradient id="a"><stop offset="0" stop-opacity=".27451"/><stop offset="1" stop-opacity="0"/></linearGradient><linearGradient id="b" gradientUnits="userSpaceOnUse" x1="16.538045" x2="16.538045" xlink:href="#a" y1="28.033935" y2="29.35697887502"/><linearGradient id="c"><stop offset="0" stop-opacity=".313725"/><stop offset=".222222" stop-opacity=".27451"/><stop offset="1" stop-opacity="0"/></linearGradient><radialGradient id="d" cx="450.90894" cy="189.57936" gradientTransform="matrix(.00000017 -.0781325 -.140638 -.0000001 49.484568 63.595334)" gradientUnits="userSpaceOnUse" r="21.166656" xlink:href="#c"/><radialGradient id="e" cx="450.90894" cy="189.57936" gradientTransform="matrix(-.00000017 .0781325 .140638 .0000001 -18.393052 -7.527479)" gradientUnits="userSpaceOnUse" r="21.166656" xlink:href="#c"/><radialGradient id="f" cx="450.90894" cy="189.57936" gradientTransform="matrix(-.00000017 -.0781325 .140638 -.0000001 -18.393052 63.595334)" gradientUnits="userSpaceOnUse" r="21.166656" xlink:href="#c"/><radialGradient id="g" cx="450.90894" cy="189.57936" gradientTransform="matrix(.00000017 .0781325 -.140638 .0000001 49.484566 -7.527479)" gradientUnits="userSpaceOnUse" r="21.166656" xlink:href="#c"/><linearGradient id="h" gradientUnits="userSpaceOnUse" x1="15.54572" x2="15.54572" y1="28.0338647916" y2="2.89610346856"><stop offset="0" stop-color="#ce93d8"/><stop offset="1" stop-color="#e1bee7"/></linearGradient><linearGradient id="i" gradientTransform="matrix(.0298942 0 0 .109385 15.042423 -16.36091)" gradientUnits="userSpaceOnUse" x1="249.18942" x2="249.18942" xlink:href="#a" y1="233.5" y2="254.66669"/><linearGradient id="j"><stop offset="0" stop-color="#ab47bc"/><stop offset="1" stop-color="#ba68c8"/></linearGradient><linearGradient id="k" gradientUnits="userSpaceOnUse" x1="21.16869824996" x2="21.16869824996" xlink:href="#j" y1="28.033934" y2="2.89610412498"/><filter id="l" height="100%" width="100%" x="0%" y="0%"><feColorMatrix in="SourceGraphic" type="matrix" values="0 0 0 0 1 0 0 0 0 1 0 0 0 0 1 0 0 0 1 0"/></filter><mask id="m"><g filter="url(#l)"><path d="m0 0h32v32h-32z" fill-opacity=".988235"/></g></mask><linearGradient id="n" gradientUnits="userSpaceOnUse" x1="959.9985249261" x2="939.9984842897" xlink:href="#j" y1="1695.1157464686" y2="175.1176322626"/><clipPath id="o"><path d="m0 0h32v32h-32z"/></clipPath><path d="m7.9375 28.035156h15.214844v1.320313h-15.214844zm0 0" fill="url(#b)"/><path d="m23.152344 28.035156h2.648437v-1.324218h-2.648437zm0 0" fill="url(#d)"/><path d="m7.9375 28.035156h-2.644531v1.320313h2.644531zm0 0" fill="url(#e)"/><path d="m7.9375 28.035156h-2.644531v-1.324218h2.644531zm0 0" fill="url(#f)"/><path d="m23.152344 28.035156h2.648437v1.320313h-2.648437zm0 0" fill="url(#g)"/><path d="m18.542969 2.894531h-11.929688c-.730469 0-1.320312.589844-1.320312 1.324219v22.492188c0 .734374.589843 1.324218 1.320312 1.324218h17.863281c.734376 0 1.324219-.589844 1.324219-1.324218v-16.558594zm0 0" fill="url(#h)"/><path d="m18.523438 9.179688h6.285156l.992187.992187v1.324219h-7.277343zm0 0" fill="url(#i)"/><path d="m5.292969 26.195312v.515626c0 .734374.589843 1.324218 1.320312 1.324218h17.863281c.734376 0 1.324219-.589844 1.324219-1.324218v-.515626c0 .734376-.589843 1.324219-1.324219 1.324219h-17.863281c-.730469 0-1.320312-.589843-1.320312-1.324219zm0 0" fill-opacity=".235294"/><path d="m6.613281 2.894531c-.730469 0-1.320312.589844-1.320312 1.324219v.496094c0-.734375.589843-1.324219 1.320312-1.324219h11.929688l7.257812 7.257813v-.496094l-7.257812-7.257813zm0 0" fill="#f6f6f6" fill-opacity=".588235"/><path d="m25.800781 10.152344-7.257812-7.257813v5.9375c0 .730469.589843 1.320313 1.320312 1.320313zm0 0" fill="url(#k)"/><path d="m18.542969 8.519531v.3125c0 .730469.589843 1.320313 1.320312 1.320313h5.9375l-.3125-.308594h-5.625c-.730469 0-1.320312-.589844-1.320312-1.324219zm0 0" fill-opacity=".235294"/><path d="m18.542969 2.894531v.496094l6.761719 6.761719h.496093zm0 0" fill="#fff" fill-opacity=".392157"/><path d="m18.539062 2.800781c-.050781.003907-.089843.042969-.089843.09375v5.9375c0 .78125.632812 1.414063 1.414062 1.414063h5.9375c.035157 0 .070313-.023438.085938-.058594s.003906-.074219-.019531-.101562l-7.257813-7.257813c-.019531-.015625-.042969-.027344-.070313-.027344zm.097657.320313 6.9375 6.9375h-5.710938c-.679687 0-1.226562-.546875-1.226562-1.226563zm0 0" fill="#212121"/><path d="m6.613281 2.800781c-.78125 0-1.414062.636719-1.414062 1.417969v22.492188c0 .785156.632812 1.417968 1.414062 1.417968h17.863281c.78125 0 1.417969-.632812 1.417969-1.417968v-16.558594c0-.023438-.011719-.046875-.027343-.066406l-7.257813-7.257813c-.019531-.015625-.042969-.027344-.066406-.027344zm0 .1875h11.890625l7.203125 7.203125v16.519532c0 .683593-.546875 1.230468-1.230469 1.230468h-17.863281c-.679687 0-1.226562-.546875-1.226562-1.230468v-22.492188c0-.683594.546875-1.230469 1.226562-1.230469zm0 0" fill="#212121"/><g clip-path="url(#o)" mask="url(#m)"><path d="m940.06772 695.130478c-188.48594 0-340.125004 98.022136-340.125004 219.900263 0 121.878126 151.639064 220.136461 340.125004 220.136461l259.817712 119.988543v-197.933857c50.073959-38.264063 80.071095-87.865626 80.071095-142.191147 0-121.878127-151.639065-219.900263-339.888807-219.900263zm0 0" fill="url(#n)" stroke="#212121" stroke-linecap="round" stroke-linejoin="round" stroke-width="11.338583" transform="scale(.016538)"/></g></svg>

<svg xmlns="http://www.w3.org/2000/svg" xmlns:xlink="http://www.w3.org/1999/xlink" width="32px" height="32px" viewBox="0 0 32 32" version="1.1">
<defs>
<linearGradient id="linear0" gradientUnits="userSpaceOnUse" x1="33.076088" y1="56.067871" x2="33.076088" y2="58.713959" gradientTransform="matrix(0.5,0,0,0.5,0,0)">
<stop offset="0" style="stop-color:rgb(0%,0%,0%);stop-opacity:0.27451;"/>
<stop offset="1" style="stop-color:rgb(0%,0%,0%);stop-opacity:0;"/>
</linearGradient>
<radialGradient id="radial0" gradientUnits="userSpaceOnUse" cx="450.908936" cy="189.579361" fx="450.908936" fy="189.579361" r="21.166656" gradientTransform="matrix(0.000000175,-0.0781325,-0.140639,-0.0000001,49.48457,63.595333)">
<stop offset="0" style="stop-color:rgb(0%,0%,0%);stop-opacity:0.313725;"/>
<stop offset="0.222222" style="stop-color:rgb(0%,0%,0%);stop-opacity:0.27451;"/>
<stop offset="1" style="stop-color:rgb(0%,0%,0%);stop-opacity:0;"/>
</radialGradient>
<radialGradient id="radial1" gradientUnits="userSpaceOnUse" cx="450.908936" cy="189.579361" fx="450.908936" fy="189.579361" r="21.166656" gradientTransform="matrix(-0.000000175,0.0781325,0.140639,0.0000001,-18.393051,-7.527479)">
<stop offset="0" style="stop-color:rgb(0%,0%,0%);stop-opacity:0.313725;"/>
<stop offset="0.222222" style="stop-color:rgb(0%,0%,0%);stop-opacity:0.27451;"/>
<stop offset="1" style="stop-color:rgb(0%,0%,0%);stop-opacity:0;"/>
</radialGradient>
<radialGradient id="radial2" gradientUnits="userSpaceOnUse" cx="450.908936" cy="189.579361" fx="450.908936" fy="189.579361" r="21.166656" gradientTransform="matrix(-0.000000175,-0.0781325,0.140639,-0.0000001,-18.393051,63.595333)">
<stop offset="0" style="stop-color:rgb(0%,0%,0%);stop-opacity:0.313725;"/>
<stop offset="0.222222" style="stop-color:rgb(0%,0%,0%);stop-opacity:0.27451;"/>
<stop offset="1" style="stop-color:rgb(0%,0%,0%);stop-opacity:0;"/>
</radialGradient>
<radialGradient id="radial3" gradientUnits="userSpaceOnUse" cx="450.908936" cy="189.579361" fx="450.908936" fy="189.579361" r="21.166656" gradientTransform="matrix(0.000000175,0.0781325,-0.140639,0.0000001,49.484566,-7.52748)">
<stop offset="0" style="stop-color:rgb(0%,0%,0%);stop-opacity:0.313725;"/>
<stop offset="0.222222" style="stop-color:rgb(0%,0%,0%);stop-opacity:0.27451;"/>
<stop offset="1" style="stop-color:rgb(0%,0%,0%);stop-opacity:0;"/>
</radialGradient>
<linearGradient id="linear1" gradientUnits="userSpaceOnUse" x1="31.091534" y1="56.067898" x2="31.091534" y2="5.792224" gradientTransform="matrix(0.5,0,0,0.5,0,0)">
<stop offset="0" style="stop-color:rgb(80.784315%,57.647061%,84.705883%);stop-opacity:1;"/>
<stop offset="1" style="stop-color:rgb(88.235295%,74.509805%,90.588236%);stop-opacity:1;"/>
</linearGradient>
<linearGradient id="linear2" gradientUnits="userSpaceOnUse" x1="249.189423" y1="233.5" x2="249.189423" y2="254.666687" gradientTransform="matrix(0.0298942,0,0,0.109385,15.042423,-16.36091)">
<stop offset="0" style="stop-color:rgb(0%,0%,0%);stop-opacity:0.27451;"/>
<stop offset="1" style="stop-color:rgb(0%,0%,0%);stop-opacity:0;"/>
</linearGradient>
<linearGradient id="linear3" gradientUnits="userSpaceOnUse" x1="42.337395" y1="56.067867" x2="42.337395" y2="5.792208" gradientTransform="matrix(0.5,0,0,0.5,0,0)">
<stop offset="0" style="stop-color:rgb(67.058825%,27.843139%,73.725492%);stop-opacity:1;"/>
<stop offset="1" style="stop-color:rgb(72.941178%,40.784314%,78.431374%);stop-opacity:1;"/>
</linearGradient>
<filter id="alpha" filterUnits="objectBoundingBox" x="0%" y="0%" width="100%" height="100%">
  <feColorMatrix type="matrix" in="SourceGraphic" values="0 0 0 0 1 0 0 0 0 1 0 0 0 0 1 0 0 0 1 0"/>
</filter>
<image id="image13" width="32" height="32" xlink:href="data:image/png;base64,iVBORw0KGgoAAAANSUhEUgAAACAAAAAgCAYAAABzenr0AAAABmJLR0QA/wD/AP+gvaeTAAAAVUlEQVRYhe3OMQ2AQBBE0Q9BA0ZwgYHTSTBESYkACgTQbAa6+y/ZbmcyIEm9Gwo/M9CC7h04gtzLAtzBrZXy8Y+FXzjAAQ5wwFT4uYAt6D6DjCR16AEQ9RHq7PK4aQAAAABJRU5ErkJggg=="/>
<mask id="mask0">
  <g filter="url(#alpha)">
<use xlink:href="#image13"/>
  </g>
</mask>
<linearGradient id="linear4" gradientUnits="userSpaceOnUse" x1="959.998535" y1="1695.115723" x2="939.998474" y2="175.11763" >
<stop offset="0" style="stop-color:rgb(67.058825%,27.843139%,73.725492%);stop-opacity:1;"/>
<stop offset="1" style="stop-color:rgb(72.941178%,40.784314%,78.431374%);stop-opacity:1;"/>
</linearGradient>
<clipPath id="clip1">
  <rect x="0" y="0" width="32" height="32"/>
</clipPath>
<g id="surface12" clip-path="url(#clip1)">
<path style="fill-rule:nonzero;fill:url(#linear4);stroke-width:11.338583;stroke-linecap:round;stroke-linejoin:round;stroke:rgb(12.941177%,12.941177%,12.941177%);stroke-opacity:1;stroke-miterlimit:4;" d="M 940.066996 695.129942 C 751.581201 695.129942 599.942253 793.388201 599.942253 915.266233 C 599.942253 1037.144266 751.581201 1135.166327 940.066996 1135.166327 L 1200.120705 1255.154777 L 1200.120705 1057.221073 C 1249.958427 1018.95704 1279.95554 969.355515 1279.95554 915.266233 C 1279.95554 793.388201 1128.316592 695.129942 940.066996 695.129942 Z M 940.066996 695.129942 " transform="matrix(0.0165381,0,0,0.0165381,0,0)"/>
</g>
</defs>
<g id="surface1">
<path style=" stroke:none;fill-rule:nonzero;fill:url(#linear0);" d="M 7.9375 28.03125 L 23.152344 28.03125 L 23.152344 29.359375 L 7.9375 29.359375 Z M 7.9375 28.03125 "/>
<path style=" stroke:none;fill-rule:nonzero;fill:url(#radial0);" d="M 23.152344 28.03125 L 25.796875 28.03125 L 25.796875 26.710938 L 23.152344 26.710938 Z M 23.152344 28.03125 "/>
<path style=" stroke:none;fill-rule:nonzero;fill:url(#radial1);" d="M 7.9375 28.03125 L 5.292969 28.03125 L 5.292969 29.359375 L 7.9375 29.359375 Z M 7.9375 28.03125 "/>
<path style=" stroke:none;fill-rule:nonzero;fill:url(#radial2);" d="M 7.9375 28.03125 L 5.292969 28.03125 L 5.292969 26.710938 L 7.9375 26.710938 Z M 7.9375 28.03125 "/>
<path style=" stroke:none;fill-rule:nonzero;fill:url(#radial3);" d="M 23.152344 28.03125 L 25.796875 28.03125 L 25.796875 29.359375 L 23.152344 29.359375 Z M 23.152344 28.03125 "/>
<path style=" stroke:none;fill-rule:nonzero;fill:url(#linear1);" d="M 18.542969 2.898438 L 6.617188 2.898438 C 5.882812 2.898438 5.292969 3.484375 5.292969 4.21875 L 5.292969 26.710938 C 5.292969 27.445312 5.882812 28.03125 6.617188 28.03125 L 24.476562 28.03125 C 25.210938 28.03125 25.796875 27.445312 25.796875 26.710938 L 25.796875 10.15625 Z M 18.542969 2.898438 "/>
<path style=" stroke:none;fill-rule:nonzero;fill:url(#linear2);" d="M 18.523438 9.179688 L 24.804688 9.179688 L 25.796875 10.171875 L 25.796875 11.496094 L 18.523438 11.496094 Z M 18.523438 9.179688 "/>
<path style=" stroke:none;fill-rule:nonzero;fill:rgb(0%,0%,0%);fill-opacity:0.235294;" d="M 5.292969 26.195312 L 5.292969 26.710938 C 5.292969 27.445312 5.882812 28.03125 6.617188 28.03125 L 24.476562 28.03125 C 25.210938 28.03125 25.796875 27.445312 25.796875 26.710938 L 25.796875 26.195312 C 25.796875 26.929688 25.210938 27.519531 24.476562 27.519531 L 6.617188 27.519531 C 5.882812 27.519531 5.292969 26.929688 5.292969 26.195312 Z M 5.292969 26.195312 "/>
<path style=" stroke:none;fill-rule:nonzero;fill:rgb(96.470588%,96.470588%,96.470588%);fill-opacity:0.588235;" d="M 6.617188 2.898438 C 5.882812 2.898438 5.292969 3.484375 5.292969 4.21875 L 5.292969 4.714844 C 5.292969 3.984375 5.882812 3.390625 6.617188 3.390625 L 18.542969 3.390625 L 25.796875 10.648438 L 25.796875 10.15625 L 18.542969 2.898438 Z M 6.617188 2.898438 "/>
<path style=" stroke:none;fill-rule:nonzero;fill:url(#linear3);" d="M 25.796875 10.15625 L 18.542969 2.898438 L 18.542969 8.828125 C 18.542969 9.5625 19.132812 10.15625 19.867188 10.15625 Z M 25.796875 10.15625 "/>
<path style=" stroke:none;fill-rule:nonzero;fill:rgb(0%,0%,0%);fill-opacity:0.235294;" d="M 18.542969 8.519531 L 18.542969 8.828125 C 18.542969 9.5625 19.132812 10.15625 19.867188 10.15625 L 25.796875 10.15625 L 25.488281 9.84375 L 19.867188 9.84375 C 19.132812 9.84375 18.542969 9.25 18.542969 8.519531 Z M 18.542969 8.519531 "/>
<path style=" stroke:none;fill-rule:nonzero;fill:rgb(100%,100%,100%);fill-opacity:0.392157;" d="M 18.542969 2.898438 L 18.542969 3.390625 L 25.304688 10.15625 L 25.796875 10.15625 Z M 18.542969 2.898438 "/>
<path style=" stroke:none;fill-rule:nonzero;fill:rgb(12.941177%,12.941177%,12.941177%);fill-opacity:1;" d="M 18.539062 2.804688 C 18.492188 2.804688 18.449219 2.84375 18.449219 2.898438 L 18.449219 8.828125 C 18.449219 9.613281 19.082031 10.25 19.867188 10.25 L 25.796875 10.25 C 25.835938 10.246094 25.871094 10.226562 25.886719 10.1875 C 25.898438 10.15625 25.890625 10.113281 25.867188 10.085938 L 18.609375 2.828125 C 18.589844 2.8125 18.566406 2.804688 18.539062 2.804688 Z M 18.636719 3.125 L 25.570312 10.058594 L 19.867188 10.058594 C 19.179688 10.058594 18.636719 9.515625 18.636719 8.828125 Z M 18.636719 3.125 "/>
<path style=" stroke:none;fill-rule:nonzero;fill:rgb(12.941177%,12.941177%,12.941177%);fill-opacity:1;" d="M 6.617188 2.804688 C 5.832031 2.804688 5.199219 3.4375 5.199219 4.21875 L 5.199219 26.710938 C 5.199219 27.492188 5.832031 28.125 6.617188 28.125 L 24.476562 28.125 C 25.257812 28.125 25.890625 27.492188 25.890625 26.710938 L 25.890625 10.15625 C 25.890625 10.128906 25.882812 10.105469 25.867188 10.085938 L 18.609375 2.828125 C 18.589844 2.8125 18.566406 2.804688 18.542969 2.804688 Z M 6.617188 2.992188 L 18.503906 2.992188 L 25.703125 10.191406 L 25.703125 26.710938 C 25.703125 27.390625 25.15625 27.9375 24.476562 27.9375 L 6.617188 27.9375 C 5.929688 27.9375 5.386719 27.390625 5.386719 26.710938 L 5.386719 4.21875 C 5.386719 3.539062 5.929688 2.992188 6.617188 2.992188 Z M 6.617188 2.992188 "/>
<use xlink:href="#surface12" mask="url(#mask0)"/>
</g>
</svg>
